build/img/icons/facebook-icon.svg

<svg width="40" height="40" viewBox="0 0 40 40" fill="none" xmlns="http://www.w3.org/2000/svg">
<path d="M39.9972 20.0007C39.9972 30.1019 32.5098 38.4529 22.7831 39.808C21.8736 39.9341 20.9431 40 19.9986 40C18.9084 40 17.8377 39.9131 16.7951 39.745C7.27298 38.2118 0 29.9548 0 20.0007C0 8.95491 8.9546 0 20 0C31.0454 0 40 8.95491 40 20.0007H39.9972Z" fill="#88AB8E"/>
<path d="M22.7847 16.0602V20.4171H28.1743L27.3208 26.2862H22.7847V39.8082C21.8752 39.9344 20.9447 40.0002 20.0002 40.0002C18.91 40.0002 17.8393 39.9134 16.7967 39.7452V26.2862H11.8262V20.4171H16.7967V15.0862C16.7967 11.779 19.4775 9.09668 22.7861 9.09668V9.09949C22.7959 9.09949 22.8043 9.09668 22.8141 9.09668H28.1757V14.1725H24.6723C23.6311 14.1725 22.7861 15.0176 22.7861 16.0588L22.7847 16.0602Z" fill="#EEE7DA"/>
</svg>

<svg width="40" height="40" fill="none" xmlns="http://www.w3.org/2000/svg"><path d="M39.997 20c0 10.102-7.487 18.453-17.214 19.808a20.277 20.277 0 0 1-5.988-.063C7.273 38.212 0 29.955 0 20.001 0 8.955 8.955 0 20 0s20 8.955 20 20h-.003Z" fill="#88AB8E"/><path d="M22.785 16.06v4.357h5.39l-.854 5.87h-4.536v13.521a20.261 20.261 0 0 1-5.988-.063V26.286h-4.97v-5.869h4.97v-5.33a5.99 5.99 0 0 1 5.99-5.99v.002l.027-.002h5.362v5.075h-3.504a1.887 1.887 0 0 0-1.886 1.887l-.001.001Z" fill="#EEE7DA"/></svg>
